X:114
T:Downfall of the Rebells. ThoH.114, The
Q:1/2=90
M:3/2
L:1/8
B:Thompson's Compleat Collection of 120 Favourite Hornpipes.
Z:Village Music Project, Simon Wilson 2016
O:England.
K:Eb
E4GBegf2ed|e2g2cafed4|eBGEF2A2DFBD|C2AG FEDCTB,3A,|
G,B,EGF2ED EGBd|F=Ace dfd=A Bcde|fB=AB gBaBb2g2|f=ABed2Tc2B4:|
|:B4dfdBb2ge|c2ag fedc=B4|cege afd=B cedc|BAGF EcD=BC4|
EGBd eBGE cAFD|EB,A,G, A,B,CD EFGA|BEDE cEdEe2c2|BDEAG2TF2E4:|

